!!!COM: Gustav Mahler
!!!CNT: Deutsch
!!!TXO: Deutsch
!!!OTL: "Ich ging mit Lust durch einen gru2nen Wald"
!!!LYR: Des Knaben Wunderhorn
!!!OPR: Des Knaben Wunderhorn, Part 1 
!!!ENC: O'Neal Douglas
!!!YOR: CD Sheet Music: Late Romantic German Lieder
!!!YOR: CD Sheet Music, LLC, 2001
!!!ODT: 1890/
!!NB: Vocal melody and text encoded.
**kern	**text
*staff1	*staff1
*clefG2	*
*k[]	*
*M2/4	*
*MM60	*
=0	=0
4.r	.
{8G	{Ich
=1	=1
4c	ging
4e	mit
=2	=2
4g	Lust
8r	.
8G	durch
=3	=3
8c	ei-
8e	-nen
8g	gru2-
8cc	-nen
=4	=4
4ee}	Wald,}
8r	.
{8dd	{ich
=5	=5
8.cc	ho2rt'
16b	die
8cc	Vo2g-
8a	-lein
=6	=6
(8g	sin-
8e)	|
8c}	-gen.}
8r	.
=7	=7
2r	.
=8	=8
4r	.
8r	.
{8c	{Sie
=9	=9
(8d	san-
8g)	|
8b	-gen
8dd	so
=10	=10
4ff	jung,
8r	.
8d	sie
=11	=11
(8d	san-
8g)	|
8b	-gen
8dd	so
=12	=12
4ff}	alt,}
4r	.
=13	=13
2r	.
=14	=14
4r	.
8r	.
{8e	{die
=15	=15
4e	klei-
8e	-nen
8f	Wald-
=16	=16
8.e	-vo2-
16d	-ge-
8c	-lein
8d	im
=17	=17
(8e	gru2-
8c)	|
(8e	-nen
8a)	|
=18	=18
4cc}	Wald,}
8r	.
{8e	{im
=19	=19
(8.e	gru2-
16d	|
16c	|
16e)	|
(16a	-nen
16cc)	|
=20	=20
4ee	Wald!
8r	.
8c	Wie
=21	=21
8.a	gern
16g	ho2rt
(16f	ich
16g)	|
(16a	sie
16b)	|
=22	=22
4cc	sin-
8g	-gen,
8a	ja
=23	=23
2g	sin-
=24	=24
4e}	-gen}
4r	.
=25	=25
2r	.
=26	=26
2r	.
=27	=27
2r	.
=28	=28
2r	.
=29	=29
4r	.
8r	.
{8G	{Nun
=30	=30
4c	sing;
4e	nun
=31	=31
4g	sing;
8r	.
8G	nun
=32	=32
8c	sing;
8e	Frau
8g	Nacht
8cc	i-
=33	=33
4ee}	-gall!}
8r	.
{8dd	{Sing'
=34	=34
8.cc	du's
16b	bei
12cc	mein
12cc	nem
12a	Feins-
=35	=35
(8.g	-lieb-
16e)	|
8c}	-chen:}
8r	.
=36	=36
2r	.
=37	=37
4r	.
8r	.
{8c	{Komm'
=38	=38
(8d	schier,
8g)	|
(8b	komm'
8dd)	|
=39	=39
4ff	schier,
8r	.
8d	wenn's
=40	=40
(8d	fin-
8g)	|
(8b	-ster
8dd)	|
=41	=41
4.ff}	ist,}
8r	.
=42	=42
2r	.
=43	=43
4r	.
8r	.
{8e	{wenn
=44	=44
8.e	nie-
16e	-mand
8e	auf
8f	der
=45	=45
8.e	Gas-
16d	-se
8c	ist,
8d	dann
=46	=46
(8e	komm'
8c)	|
(8e	zu
8a)	|
=47	=47
4cc}	mir,}
8r	.
{8e	{dann
=48	=48
(8.e	komm'
16d	|
16c	|
16e)	|
(16a	zu
16cc)	|
=49	=49
4ee	mir!
8r	.
8c	Her-
=50	=50
8.a	-ein
16g	will
(16f#	ich
16g)	|
(16a	dich
16b)	|
=51	=51
4cc	las-
8g	-sen,
8a	ja
=52	=52
2g	las-
=53	=53
4e}	-sen!}
4r	.
=54	=54
2r	.
=55	=55
2r	.
=56	=56
2r	.
=57	=57
2r	.
=58	=58
*k[b-]	*
4r	.
8r	.
{8c	{Der
=59	=59
4c	Tag
4a	ver-
=60	=60
4g	-ging,
8r	.
8d	die
=61	=61
(8f	Nacht
8e)	|
(8d	brach
8dd)	|
=62	=62
4cc}	an,}
8r	.
{8a	{er
=63	=63
(8cc	kam
8ff)	|
8ee	zu
8dd	Feins-
=64	=64
(8cc	-lieb-
8b-)	|
8d	-chen,
8b-	Feins-
=65	=65
(8a	-lieb-
8g)	|
8c	-chen
8a	ge-
=66	=66
(8g	-gan-
8f)	|
8c}	-gen!}
{8A	{Er
=67	=67
4c	klopft
4a	so
=68	=68
4g	leis'
8r	.
8d	wohl
=69	=69
(8f	an
8e)	|
(8d	den
8dd)	|
=70	=70
4cc}	Ring,}
8r	.
{8cc	{ei,
=71	=71
8.cc	schla2fst
16cc	du
8b-	o-
8a-	-der
=72	=72
8.b-	wachst,
16a-	mein
8f	Kind?
8a-	Ich
=73	=73
8.g	hab'
16f	so
8e	lang'
8f	ge-
=74	=74
(8c	-stan-
8dd)	|
8cc	-den,
8c	ich
=75	=75
8.d	hab'
16f	so
8e	lang'
8g	ge-
=76	=76
(8c	-stan-      
8b-)	|
8a}	-den!}
8r	.
=77	=77
2r	.
=78	=78
2r	.
=79	=79
2r	.
=80	=80
4r	.
8r	.
{8c	{Es
=81	=81
*k[]	*
4c	schaut
4e	der
=82	=82
4g	Mond
8r	.
8G	durch's
=83	=83
(8c	Fen-
8e)	|
(8g	-ster-
8cc)	|
=84	=84
4ee}	-lein}
8r	.
{8dd	{zum
=85	=85
8.cc	hol-
16b	-den,
8cc	su2-
8a	-ssen
=86	=86
(8g	Lie-
8e)	|
8c}	-ben,}
8r	.
=87	=87
2r	.
=88	=88
4r	.
8r	.
{8c	{die
=89	=89
(8d	Nach-
8g)	|
8b	-ti-
8dd	-gall
=90	=90
4.ff	sang
8d	die
=91	=91
(8d	gan-
8g)	|
(8b	-ze
8dd)	|
=92	=92
4ff}	Nacht.}
4r	.
=93	=93
2r	.
=94	=94
4r	.
8r	.
{8e	{Du
=95	=95
4e	schlaf-
8e	-se-
8f	-lig'
=96	=96
8.e	Ma2g-
16d	-de-
8c	-lein,
8d	nimm
=97	=97
(8e	dieh
8c)	|
(8e	in
8a)	|
=98	=98
4cc}	Acht,}
8r	.
{8e	{nimm
=99	=99
(8.e	dich
16d	|
16c	|
16e)	|
(16a	in
16cc)	|
=100	=100
4ee	Acht!
8r	.
8e	Wo
=101	=101
(8.e	ist
32g	|
32f)	|
(16e	dein
16g)	|
(16cc	Herz-
16a)	|
=102	=102
4g	-lieb-
8e	-ster
8f	ge-
=103	=103
2g	-blie-
=104	=104
4e}	-ben?}
4r	.
=105	=105
2r	.
=106	=106
2r	.
=107	=107
2r	.
=108	=108
2r	.
==	==
*-	*-
